Sources/Octicons.swift/Resources/Media.xcassets/arrow-left-16.imageset/arrow-left-16.svg

<svg xmlns="http://www.w3.org/2000/svg" viewBox="0 0 16 16" width="16" height="16">  <path fill-rule="evenodd" clip-rule="evenodd" d="M7.78033 12.5303C7.48744 12.8232 7.01256 12.8232 6.71967 12.5303L2.46967 8.28033C2.17678 7.98744 2.17678 7.51256 2.46967 7.21967L6.71967 2.96967C7.01256 2.67678 7.48744 2.67678 7.78033 2.96967C8.07322 3.26256 8.07322 3.73744 7.78033 4.03033L4.81066 7L12.25 7C12.6642 7 13 7.33579 13 7.75C13 8.16421 12.6642 8.5 12.25 8.5L4.81066 8.5L7.78033 11.4697C8.07322 11.7626 8.07322 12.2374 7.78033 12.5303Z"></path></svg>

<svg xmlns="http://www.w3.org/2000/svg" width="16" height="16" viewBox="0 0 16 16"><path d="M7.78 12.53a.75.75 0 0 1-1.06 0L2.47 8.28a.75.75 0 0 1 0-1.06l4.25-4.25a.751.751 0 0 1 1.042.018.751.751 0 0 1 .018 1.042L4.81 7h7.44a.75.75 0 0 1 0 1.5H4.81l2.97 2.97a.75.75 0 0 1 0 1.06Z"/></svg>
